assets/icons/icon_keyboard_down.svg

<svg width="48" height="48" viewBox="0 0 48 48" fill="none" xmlns="http://www.w3.org/2000/svg">
<g clip-path="url(#clip0_2188_3099)">
<path d="M28.2399 34.9401L23.9999 39.1801L19.7599 34.9401C19.1699 34.3501 18.2199 34.3501 17.6399 34.9401C17.0599 35.5301 17.0499 36.4801 17.6399 37.0601L22.4299 41.8501C22.8599 42.2801 23.4299 42.5001 24.0099 42.5001C24.5899 42.5001 25.1499 42.2801 25.5899 41.8501L30.3799 37.0601C30.9699 36.4701 30.9699 35.5201 30.3799 34.9401C29.7899 34.3601 28.8399 34.3501 28.2599 34.9401H28.2399Z" fill="black"/>
<path d="M34 5H14C9.58 5 6 8.58 6 13V25C6 29.42 9.58 33 14 33H34C38.42 33 42 29.42 42 25V13C42 8.58 38.42 5 34 5ZM39 25C39 27.76 36.76 30 34 30H14C11.24 30 9 27.76 9 25V13C9 10.24 11.24 8 14 8H34C36.76 8 39 10.24 39 13V25Z" fill="black"/>
<path d="M15 17C15.8284 17 16.5 16.3284 16.5 15.5C16.5 14.6716 15.8284 14 15 14C14.1716 14 13.5 14.6716 13.5 15.5C13.5 16.3284 14.1716 17 15 17Z" fill="black"/>
<path d="M33 17C33.8284 17 34.5 16.3284 34.5 15.5C34.5 14.6716 33.8284 14 33 14C32.1716 14 31.5 14.6716 31.5 15.5C31.5 16.3284 32.1716 17 33 17Z" fill="black"/>
<path d="M27 17C27.8284 17 28.5 16.3284 28.5 15.5C28.5 14.6716 27.8284 14 27 14C26.1716 14 25.5 14.6716 25.5 15.5C25.5 16.3284 26.1716 17 27 17Z" fill="black"/>
<path d="M21 17C21.8284 17 22.5 16.3284 22.5 15.5C22.5 14.6716 21.8284 14 21 14C20.1716 14 19.5 14.6716 19.5 15.5C19.5 16.3284 20.1716 17 21 17Z" fill="black"/>
<path d="M30.5 21H17.5C16.67 21 16 21.67 16 22.5C16 23.33 16.67 24 17.5 24H30.5C31.33 24 32 23.33 32 22.5C32 21.67 31.33 21 30.5 21Z" fill="black"/>
</g>
<defs>
<clipPath id="clip0_2188_3099">
<rect width="48" height="48" fill="white"/>
</clipPath>
</defs>
</svg>

<?xml version="1.0" encoding="UTF-8"?>
<svg xmlns="http://www.w3.org/2000/svg" viewBox="0 0 48 48">
  <defs>
    <style>
      .cls-1 {
        fill: none;
        opacity: .2;
      }
    </style>
  </defs>
  <g id="guid">
    <rect class="cls-1" width="48" height="48"/>
    <rect class="cls-1" x="4" y="4" width="40" height="40"/>
  </g>
  <g id="Layer_2" data-name="Layer 2">
    <g>
      <path d="M28.24,34.94l-4.24,4.24-4.24-4.24c-.59-.59-1.54-.59-2.12,0s-.59,1.54,0,2.12l4.79,4.79c.43.43,1,.65,1.58.65s1.14-.22,1.58-.65l4.79-4.79c.59-.59.59-1.54,0-2.12s-1.54-.59-2.12,0Z"/>
      <path d="M34,5H14c-4.42,0-8,3.58-8,8v12c0,4.42,3.58,8,8,8h20c4.42,0,8-3.58,8-8v-12c0-4.42-3.58-8-8-8ZM39,25c0,2.76-2.24,5-5,5H14c-2.76,0-5-2.24-5-5v-12c0-2.76,2.24-5,5-5h20c2.76,0,5,2.24,5,5v12Z"/>
      <circle cx="15" cy="15.5" r="1.5"/>
      <circle cx="33" cy="15.5" r="1.5"/>
      <circle cx="27" cy="15.5" r="1.5"/>
      <circle cx="21" cy="15.5" r="1.5"/>
      <path d="M30.5,21h-13c-.83,0-1.5.67-1.5,1.5s.67,1.5,1.5,1.5h13c.83,0,1.5-.67,1.5-1.5s-.67-1.5-1.5-1.5Z"/>
    </g>
  </g>
</svg>
